svg/fluentui-system-icons/ic_fluent_sport_basketball_24_filled.svg

<svg width="24" height="24" viewBox="0 0 24 24" fill="none" xmlns="http://www.w3.org/2000/svg">
<path d="M18.4342 12.8664C17.1486 12.4827 15.6686 11.9693 14.2735 10.7892L13.0625 12.0002L19.5838 18.5211C20.6616 17.2707 21.3791 15.8168 21.7363 14.2956C21.7339 14.2933 21.7316 14.291 21.7292 14.2887C21.7263 14.286 21.7235 14.2832 21.7206 14.2803C21.3805 13.9402 20.9421 13.6932 20.3822 13.4764C19.9464 13.3077 19.4807 13.1722 18.9561 13.0196C18.7885 12.9708 18.6148 12.9203 18.4342 12.8664ZM18.5232 4.41825L14.2778 8.66363C13.3575 7.53833 12.9285 6.33233 12.5719 5.13774C12.526 4.98402 12.4806 4.82763 12.4348 4.67013C12.2782 4.13121 12.1178 3.57933 11.9234 3.07725C11.7831 2.71487 11.6177 2.35663 11.4079 2.01755C13.9279 1.86851 16.4935 2.66875 18.5232 4.41825ZM19.5838 5.47892L15.3385 9.72418C16.4635 10.6438 17.6691 11.0726 18.8632 11.4291C19.0168 11.4749 19.1731 11.5203 19.3305 11.5661C19.8694 11.7227 20.4216 11.8832 20.9237 12.0775C21.2865 12.218 21.645 12.3836 21.9844 12.5936C22.1334 10.0739 21.3332 7.50848 19.5838 5.47892ZM9.72064 2.28033L9.70635 2.26564C8.18495 2.6229 6.73098 3.34051 5.48047 4.41848L12.0018 10.9395L13.2127 9.72864C12.0319 8.33321 11.5184 6.85276 11.1346 5.56675C11.0807 5.38622 11.0302 5.21263 10.9814 5.04505C10.8288 4.5205 10.6933 4.0545 10.5246 3.6188C10.3078 3.05887 10.0608 2.62044 9.72064 2.28033ZM2.13202 10.3877C2.41918 8.62057 3.18179 6.91568 4.41985 5.47918L10.9412 12.0002L9.85248 13.0889C8.37837 11.8956 6.66057 11.4732 5.19045 11.1776C4.9829 11.1359 4.78271 11.0971 4.58921 11.0597C3.98229 10.9422 3.4411 10.8374 2.94516 10.6935C2.63143 10.6025 2.36194 10.5024 2.13202 10.3877ZM2.00202 11.9621C1.99323 14.3002 2.79928 16.6407 4.42016 18.5212L8.78452 14.1568C7.64326 13.2837 6.28747 12.9282 4.89476 12.6482C4.71653 12.6123 4.53524 12.5773 4.3529 12.542C3.73035 12.4217 3.0954 12.2989 2.52728 12.1342C2.35127 12.0831 2.17546 12.0265 2.00202 11.9621ZM9.84834 15.2143L5.48083 19.5818C7.41447 21.2485 9.83452 22.0536 12.2381 21.9972C12.087 21.6957 11.969 21.3813 11.8708 21.0655C11.7049 20.532 11.5811 19.9405 11.4606 19.3651C11.4255 19.1974 11.3907 19.031 11.3552 18.8678C11.078 17.5935 10.726 16.3354 9.84834 15.2143ZM13.8955 21.8201C15.562 21.5003 17.1629 20.7542 18.5231 19.5818L12.0019 13.0608L10.9152 14.1475C12.0982 15.5867 12.5231 17.1801 12.8209 18.549C12.863 18.7424 12.902 18.9283 12.9395 19.1075C13.0568 19.6668 13.1605 20.1613 13.3031 20.62C13.4598 21.1237 13.6453 21.5164 13.8955 21.8201Z" fill="#212121"/>
</svg>

<svg xmlns="http://www.w3.org/2000/svg" width="24" height="24"><path d="M18.434 12.866c-1.285-.383-2.765-.897-4.16-2.077L13.063 12l6.52 6.521a9.94 9.94 0 0 0 2.153-4.225l-.007-.007-.008-.009c-.34-.34-.779-.587-1.339-.804a17.6 17.6 0 0 0-1.426-.456l-.522-.154Zm.09-8.448-4.246 4.246c-.92-1.126-1.35-2.332-1.706-3.526l-.137-.468a19.75 19.75 0 0 0-.512-1.593 6.382 6.382 0 0 0-.515-1.06 9.976 9.976 0 0 1 7.115 2.401Zm1.06 1.06-4.245 4.246c1.124.92 2.33 1.349 3.524 1.705l.468.137c.538.157 1.09.317 1.593.511.363.141.721.307 1.06.517a9.976 9.976 0 0 0-2.4-7.115ZM9.72 2.28l-.015-.014A9.94 9.94 0 0 0 5.48 4.418l6.522 6.522 1.21-1.211c-1.18-1.396-1.694-2.876-2.077-4.162l-.154-.522a17.75 17.75 0 0 0-.456-1.426c-.217-.56-.464-.999-.804-1.339Zm-7.589 8.108A9.947 9.947 0 0 1 4.42 5.479L10.94 12l-1.088 1.09c-1.474-1.193-3.191-1.616-4.662-1.911-.207-.042-.407-.08-.6-.118-.608-.118-1.149-.223-1.645-.367a4.86 4.86 0 0 1-.813-.305Zm-.13 1.574a9.969 9.969 0 0 0 2.418 6.56l4.365-4.365c-1.142-.873-2.498-1.229-3.89-1.509-.178-.036-.36-.07-.542-.106-.623-.12-1.258-.243-1.826-.408a7.58 7.58 0 0 1-.525-.172Zm7.846 3.252L5.48 19.582a9.971 9.971 0 0 0 6.757 2.415 6.15 6.15 0 0 1-.367-.931c-.166-.534-.29-1.125-.41-1.7-.036-.169-.07-.335-.106-.498-.277-1.274-.629-2.533-1.507-3.654Zm4.047 6.606a9.944 9.944 0 0 0 4.628-2.238l-6.521-6.521-1.087 1.087c1.183 1.439 1.608 3.032 1.906 4.401l.119.559c.117.559.22 1.053.363 1.512.157.504.342.896.592 1.2Z"/></svg>
